X: 36
T: Lass of Dallogill - North Skelton
T: North Skelton - Lass of Dallogill
M: 6/8
Q: 3/8=3D135
O: England
A: North Skelton
N: 1st tune in sword dance set, from Douglas Kennedy's description in the EFDSS
S: Chris Partington <ChrisTheFiddlerPartington:Hotmail.com> tradtunes 2009-8-1
Z: J. Winspear
K: C
ede G2G | A2A G3  | ede G2G | A2B c3 |\
ede G2G | A2A G3  | ede G2G | A2B c2 ||
d |\
e2c d2B | c2c BAG | e2c d2d | d2f g3 |\
a2f g2e | f2d e3  | ede G2G | A2B c3 |]


